icons/grip-horizontal.svg

<svg width="24" height="24" viewBox="0 0 24 24" fill="none" xmlns="http://www.w3.org/2000/svg">
<path d="M12 16.225V15.2805M19.125 16.225V15.2805M4.875 16.225V15.2805M12 8.66942V7.72498M19.125 8.66942V7.72498M4.875 8.66942V7.72498" stroke="black" stroke-width="2" stroke-linecap="round" stroke-linejoin="round"/>
</svg>

<svg xmlns="http://www.w3.org/2000/svg" width="24" height="24" viewBox="0 0 24 24" fill="none" stroke="currentColor" stroke-width="2" stroke-linecap="round" stroke-linejoin="round">
<path d="M12 16.225v-.945m7.125.945v-.945m-14.25.945v-.945M12 8.67v-.945m7.125.944v-.944m-14.25.944v-.944"/>
</svg>
